X:1
T:Ave Maria
T:mezzo soprano
T:Saint-Saens (1865)
T:Ave Maria mezzo soprano
T:Copyright © 2014 by CPDL.  This edition can be fully distributed, duplicated, performed, and recorded 
T:Copyright © 2014 by CPDL.  This edition can be fully distributed, duplicated, performed, and recorded 
T:Copyright © 2014 by CPDL.  This edition can be fully distributed, duplicated, performed, and recorded 
T:Copyright © 2014 by CPDL.  This edition can be fully distributed, duplicated, performed, and recorded 
C:Saint-Saens (1865)
Z:Copyright © 2014 by CPDL.  This edition can be fully distributed, duplicated, performed, and recorded
%%score 1 { ( 2 5 ) | ( 3 4 ) }
L:1/8
Q:1/4=64
M:2/4
K:Gb
V:1 treble nm="Voice" snm="Voice"
V:2 treble nm="Organ" snm="Org."
V:5 treble 
V:3 bass 
V:4 bass 
V:1
 z4 |!p! G2"^sempre legato" AB | (EB) A2 | A2 Bc | (Be) d2 | d2 cB | B2 c2 | EF (GA) | G2 F2 | %9
w: |A- ve Ma-|ri- * a|gra- ti- a|ple- * na.|A- ve Ma-|ri- a|Do- mi- nus _|te- cum.|
 (G2 A)B | EB A2 | A2 Bc | Be d2 |!<(! d2 cB | B2!<)! c2 | _f2 (ed) | (ec) (BA) | (dB) (AG) | %18
w: Be- * ne|di- cta tu|in mu- li-|e- ri- bus|et be- ne-|di- ctus|fru- ctus _|ven- * tris _|tu- * i _|
!>(! (dc B2- | B2!>)! A2) | G4 | z4 | z4 | z4 | B2 GF | E2 B2 | A2 c2 | c2 B2 | (A2 d2- | dc) BA | %30
w: Je- * *||su.||||San- cta Ma-|ri- a,|Ma- ter|De- i|o- *|* * ra pro|
 (G2 A2) | F4 | B2 GF | E2 B2 | A2 c2 | c>B B2 |"^poco cresc." B2 =AB | d2 B2 | G3 G | G2 F2 | z4 | %41
w: no- *|bis,|o- ra pro|no- bis|pec- ca-|to- ri- bus|nunc et in|ho- ra|mor- tis|nos- trae,||
 z4 |"^dim." G4- | G2!pp! F2 | d4- | d4- | d4 | D4 | z4 |!p! G2 AB | (EB) A2 | A2 Bc | (Be) d2 | %53
w: |mor-|* tis|nos-|||trae,||o- ra pro|no- * bis,|o- ra pro|no- * bis,|
!<(! d2!<)! cB |!>(! B2!>)! c2 | _f2 (ed) | (ec) (BA) | (dB) (AG) | (d!>(!c B2- | B2!>)! A2) | G4 | %61
w: nunc et in|ho- ra,|et in _|ho- * ra _|mor- * tis _|nos- * *||strae,|
"^dolcissimo" (c2 de) | A2 (Bc) | (E2 F2) | G4 | (=B2 ^c=d) | =G2 (=A=B) | (=D2 =E2) | _G4- | G4- | %70
w: o- * *|ra pro _|no- *|bis,|o- * *|ra pro _|no- *|bis.|_|
"^rit." G4- | G2 !fermata!z2 |] %72
w: ||
V:2
!p! [DG]4- | [DG]4 | [EA-]4 | [D-FA]4 | [DG]4 | [DG-]4 | [EG]4 | [Ec]4 | B2 A2 | [DG]4 | [EA-]4 | %11
 [D-FA]4 | [DG]4 | (d2 cB) | ([GB]2 [Ac]2) | _f2 ed | ec BA | dB AG- | dc B2- | B2 A2 | G2 AB | %21
 EB A2 | (A2 Bc | Fc B2) | (G,B, EF) | (GF EB,) | (CE FA) | (GF GE) | (AF DC) | (B,D GF) | %30
 (EG FE) | (=DC B,A,) | (G,B, EF) | (GF EB,) | (CE FA) | (GF GE) | (=GD =CB,) | (F=C DB,) | %38
 (=A,=C DE) | (D=C DB,) | G3 G | G2 F2 | (=A,=C DE) | (D=C E=A,) | [D,F,B,]2 z2 |!pp! (G2 AB | %46
 EB A2) | (A2 Bc | Be d2) |!p! [DG]4 | [EA-]4 | [D-FA]4 | [DG]4 | (=Gd cB) | ([=GB]2 [Ac]2) | %55
 _f2 ed | ec BA | dB AG- | dc B2- | B2 A2 | G2 AB | [CE]4- | [CE]4- | E2 F2 | (G2 AB | [=B,=D]4-) | %66
 [B,D]4- | D2 =E2 | G4- | G4- | G4 | DA !fermata!G2 |] %72
V:3
 [G,B,]4- | [G,-B,]4 | [G,C]4 | C2 B,A, | B,4 | B,4 | A,4 | A,,4 | D,4 | [G,-B,]4 | [G,C]4 | %11
 C2 B,A, | B,4 |!<(! B,2 CD!<)! | D2 C2 | [D,D]2 G,2- | G,2 =F,2 | B,4 |!>(! A,2 B,,C,!>)! | D,4 | %20
 B,4 | A,4- | A,4- | [F,A,]4 | [E,,E,]4- | [E,,E,]4- | [E,,E,]4- | [E,,E,]4 | F,4 | G,3 B, | %30
 C2 A,2 | B,2 B,,2 | [E,,E,]4- | [E,,E,]4- | [E,,E,]4- | [E,,E,]4 | [=E,,=E,]4 | [F,,F,]4- | %38
 [F,,F,]4- | [F,,F,]4- | [F,,F,]4- | [F,,F,]4- | [F,,F,]4- | [F,,F,]4 | [B,,,B,,]2 z2 | %45
"^original: l.h. tacet 3 ms." G,4- | G,4- | C2 B,A, |"^orig: l.h reenters" DC B,2 | [G,-B,]4 | %50
 [G,C]4 | C2 B,A, | B,4 |!<(! B,2 CD!<)! | D2 C2 | [D,D]2 G,2- | G,2 =F,2 | B,4 | %58
!>(! A,2 B,,C,!>)! | D,4 | [G,,-G,]4 |"^dolcissimo" [G,,E,A,]4- | [G,,E,A,]4- | [G,,-A,]4 | %64
 [G,,-D,G,]4 | [_G,,=D,=G,]4- | [G,,D,G,]4- | [G,,G,]4 | [D,G,-]4 | [E,G,]4- | [E,G,]4 | G,4 |] %72
V:4
 x4 | x4 | x4 | G,4- | G,4 | x4 | x4 | x4 | x4 | x4 | x4 | G,4- | G,4 | E,4 | A,4 | x4 | C,4 | %17
 B,,2 E,2 | A,,2 x2 | x4 | G,4- | G,4 | F,4- | B,,4 | x4 | x4 | x4 | x4 | x4 | x4 | x4 | x4 | x4 | %33
 x4 | x4 | x4 | x4 | x4 | x4 | x4 | x4 | x4 | x4 | x4 | x4 | x4 | x4 | G,4- | G,4 | x4 | x4 | %51
 G,4- | G,3 _F, | E,4 | A,4 | x4 | C,4 | B,,2 E,2 | A,,2 x2 | x4 | x4 | x4 | x4 | E,2 D,2- | x4 | %65
 x4 | x4 | D,2 _D,2 | G,,2 A,,B,, | E,,B,, A,,2 | E,,B,, A,,2 | !fermata!G,,4 |] %72
V:5
 x4 | x4 | x4 | x4 | x4 | x4 | x4 | x4 | D4 | x4 | x4 | x4 | x4 | [E=G]4- | E4 | [_FA]2 [GB]2 | %16
 E4 | D2 E2- | [EG-]4 | [DG]2 [CF]2 | D4 | [=CE]4 | [_CE]4 | =D4 | x4 | x4 | x4 | x4 | x4 | x4 | %30
 x4 | x4 | x4 | x4 | x4 | x4 | x4 | x4 | x4 | x4 | (=A,=C DE) | (D=C DB,) | x4 | x4 | x4 | [B,D]4 | %46
 [CE]4 | [DF]4 | G4 | x4 | x4 | x4 | x4 | [E=G]4 | z E2 E | [_FA]2 [GB]2 | E4 | D2 E2- | [EG-]4 | %59
 [DG]2 [CF]2 | [B,D]4 | x4 | x4 | C4 | [B,D]4 | x4 | x4 | B,4 | B,4- | B,2 C2 | B,2 C2 | [B,D]4 |] %72

